X:73
T:Parsou 
C:MCTB
M:3/4
L:1/8
K:C
C2E2G2|c6|Bc d2c2|A6|\
F2A2F2|E2G2E2|D2 EF ED|1E6:|2 C6||
|:G2 EG EG|A2 FA FA|B2 GB GB|c2 BcBA|\
G2 EG EG|A2 FA FA|B2 AB AB|c6:|
